assets/img/img-pages/icon-property/vitamin1.svg

<svg width="64" height="64" viewBox="0 0 64 64" fill="none" xmlns="http://www.w3.org/2000/svg">
<g clip-path="url(#clip0)">
<path d="M59.2327 10.497C56.8744 8.13887 53.8994 6.57861 50.6294 5.98514C47.4361 5.40554 44.1799 5.77935 41.2131 7.06607C40.5796 7.34074 40.2888 8.07699 40.5635 8.71047C40.8381 9.34395 41.5746 9.63462 42.2079 9.36008C47.4412 7.09045 53.4301 8.23064 57.4647 12.2653C60.0716 14.8723 61.5072 18.3383 61.5072 22.025C61.5072 25.7117 60.0715 29.1778 57.4647 31.7847L48.3749 40.8745L28.8554 21.355L33.967 16.2434C34.4552 15.7552 34.4552 14.9635 33.967 14.4752C33.4788 13.987 32.6871 13.987 32.1988 14.4752L16.2295 30.4447C13.383 33.2912 11.7101 37.0679 11.4824 41.0406C8.41618 39.4164 4.7922 38.9634 1.35425 39.8815C0.921924 39.9968 0.584368 40.3345 0.468848 40.7669C-0.809616 45.5548 0.570616 50.7034 4.07083 54.2037C6.70802 56.8409 10.2807 58.2745 13.93 58.2745C15.1243 58.2745 16.327 58.1209 17.5077 57.8057C17.5115 57.8047 17.5148 57.8031 17.5185 57.8021C17.5508 57.7932 17.5827 57.7825 17.6144 57.771C17.646 57.7825 17.6779 57.7932 17.7102 57.8021C17.7139 57.8031 17.7174 57.8047 17.721 57.8057C18.9019 58.121 20.104 58.2745 21.2987 58.2745C22.3448 58.2745 23.3846 58.1562 24.398 57.9259C25.5263 58.1628 26.6597 58.2803 27.7838 58.2803C32.0569 58.2803 36.1838 56.6016 39.2851 53.5005L59.2327 33.5529C65.5893 27.1963 65.5893 16.8536 59.2327 10.497ZM13.9269 55.7746C10.9332 55.7745 8.00199 54.5986 5.83912 52.4356C3.14217 49.7387 1.97973 45.8481 2.71785 42.1302C6.43585 41.3925 10.3263 42.5547 13.0232 45.2516C15.342 47.5704 16.525 50.7717 16.3425 53.9868L11.6915 49.3358C11.2033 48.8476 10.4116 48.8476 9.92331 49.3358C9.4351 49.824 9.4351 50.6156 9.92331 51.104L14.574 55.7546C14.3581 55.7666 14.1423 55.7746 13.9269 55.7746ZM20.6546 55.755L25.3058 51.1038C25.794 50.6156 25.794 49.824 25.3058 49.3357C24.8176 48.8475 24.0259 48.8475 23.5376 49.3357L18.8866 53.9867C18.704 50.7715 19.8871 47.5702 22.2059 45.2515C24.9027 42.5547 28.793 41.3921 32.5112 42.1302C33.2492 45.848 32.0868 49.7386 29.39 52.4356C27.0711 54.7546 23.8699 55.9379 20.6546 55.755ZM37.5171 51.7323C35.2891 53.9603 32.4355 55.3197 29.4113 55.6807C30.0283 55.2408 30.6134 54.7483 31.158 54.2037C34.6583 50.7034 36.0384 45.5547 34.76 40.7669C34.6446 40.3345 34.3069 39.997 33.8746 39.8815C29.0867 38.603 23.938 39.9831 20.4377 43.4834C19.2419 44.6794 18.2938 46.0679 17.6144 47.5684C16.9349 46.0677 15.987 44.6793 14.791 43.4834C14.529 43.2214 14.2567 42.9727 13.9769 42.7347C13.7617 38.8152 15.2194 34.9906 17.9974 32.2128L27.0872 23.123L46.6067 42.6425L37.5171 51.7323Z" fill="#14213D"/>
<path d="M37.0608 12.6318C37.3896 12.6318 37.7121 12.498 37.9447 12.2655C38.1784 12.0329 38.311 11.7104 38.311 11.3816C38.311 11.0528 38.1784 10.7302 37.9447 10.4977C37.7121 10.2651 37.3896 10.1313 37.0608 10.1313C36.732 10.1313 36.4094 10.2651 36.1769 10.4977C35.9443 10.7302 35.8105 11.0528 35.8105 11.3816C35.8105 11.7104 35.9443 12.0329 36.1769 12.2655C36.4094 12.498 36.732 12.6318 37.0608 12.6318Z" fill="#14213D"/>
</g>
<defs>
<clipPath id="clip0">
<rect width="64" height="64" fill="white"/>
</clipPath>
</defs>
</svg>

<svg width="64" height="64" fill="none" xmlns="http://www.w3.org/2000/svg"><g clip-path="url(#a)" fill="#14213D"><path d="M59.233 10.497a16.21 16.21 0 0 0-8.604-4.512 16.28 16.28 0 0 0-9.416 1.081 1.25 1.25 0 1 0 .995 2.294 13.733 13.733 0 0 1 15.257 2.905 13.712 13.712 0 0 1 4.042 9.76c0 3.687-1.435 7.153-4.042 9.76l-9.09 9.09-19.52-19.52 5.112-5.112a1.25 1.25 0 0 0-1.768-1.768l-15.97 15.97a16.3 16.3 0 0 0-4.747 10.596 13.97 13.97 0 0 0-10.128-1.16 1.25 1.25 0 0 0-.885.886A13.962 13.962 0 0 0 4.07 54.204a13.96 13.96 0 0 0 13.437 3.602l.01-.004c.033-.009.065-.02.096-.031.032.011.064.022.096.031l.011.004c1.18.315 2.383.469 3.578.469 1.046 0 2.086-.119 3.099-.35a16.47 16.47 0 0 0 3.386.355c4.273 0 8.4-1.678 11.501-4.78l19.948-19.947c6.356-6.357 6.356-16.7 0-23.056ZM13.927 55.775a11.452 11.452 0 0 1-8.088-3.34A11.457 11.457 0 0 1 2.718 42.13a11.458 11.458 0 0 1 10.305 3.122 11.455 11.455 0 0 1 3.32 8.735l-4.652-4.651a1.25 1.25 0 0 0-1.768 1.768l4.651 4.65c-.216.013-.432.02-.647.02Zm6.728-.02 4.65-4.651a1.25 1.25 0 0 0-1.767-1.768l-4.651 4.65c-.183-3.214 1-6.416 3.319-8.734A11.457 11.457 0 0 1 32.51 42.13a11.458 11.458 0 0 1-3.121 10.306 11.453 11.453 0 0 1-8.735 3.319Zm16.862-4.023a13.747 13.747 0 0 1-8.106 3.949 13.79 13.79 0 0 0 1.747-1.477c3.5-3.5 4.88-8.65 3.602-13.437a1.25 1.25 0 0 0-.885-.886 13.962 13.962 0 0 0-13.437 3.602 13.858 13.858 0 0 0-2.824 4.085c-.68-1.5-1.627-2.889-2.823-4.085-.262-.262-.534-.51-.814-.748a13.802 13.802 0 0 1 4.02-10.522l9.09-9.09 19.52 19.52-9.09 9.09Z"/><path d="M37.06 12.632a1.255 1.255 0 0 0 1.25-1.25 1.255 1.255 0 0 0-1.25-1.25 1.26 1.26 0 0 0-.883.366 1.26 1.26 0 0 0-.367.884c0 .328.134.65.367.883.232.233.555.367.884.367Z"/></g><defs><clipPath id="a"><path fill="#fff" d="M0 0h64v64H0z"/></clipPath></defs></svg>
